static/img/arrow_right.svg

<svg fill="none" height="17" viewBox="0 0 16 17" width="16" xmlns="http://www.w3.org/2000/svg"><path d="m12.175 9.61621h-12.175v-2h12.175l-5.6-5.6 1.425-1.399999 8 7.999999-8 7.99999-1.425-1.4z" fill="#1c1b1f"/></svg>

<svg width="16" height="17" viewBox="0 0 16 17" fill="none" xmlns="http://www.w3.org/2000/svg">
<path d="M12.175 9.61621H0V7.61621H12.175L6.575 2.01621L8 0.616211L16 8.61621L8 16.6162L6.575 15.2162L12.175 9.61621Z" fill="#1C1B1F"/>
</svg>
